src/images_karasa_jaga_svg/cmd/32/tablemodevariable.svg

<?xml version="1.0" encoding="UTF-8" standalone="no"?>
<svg
   xmlns:dc="http://purl.org/dc/elements/1.1/"
   xmlns:cc="http://creativecommons.org/ns#"
   xmlns:rdf="http://www.w3.org/1999/02/22-rdf-syntax-ns#"
   xmlns:svg="http://www.w3.org/2000/svg"
   xmlns="http://www.w3.org/2000/svg"
   xmlns:xlink="http://www.w3.org/1999/xlink"
   xmlns:sodipodi="http://sodipodi.sourceforge.net/DTD/sodipodi-0.dtd"
   xmlns:inkscape="http://www.inkscape.org/namespaces/inkscape"
   height="127.74194"
   viewBox="0 0 127.74194 127.74194"
   width="127.74194"
   version="1.1"
   id="svg6697"
   sodipodi:docname="tablemodevariable.svg"
   inkscape:version="0.92.3 (unknown)">
  <metadata
     id="metadata6703">
    <rdf:RDF>
      <cc:Work
         rdf:about="">
        <dc:format>image/svg+xml</dc:format>
        <dc:type
           rdf:resource="http://purl.org/dc/dcmitype/StillImage" />
      </cc:Work>
    </rdf:RDF>
  </metadata>
  <defs
     id="defs6701" />
  <sodipodi:namedview
     pagecolor="#ffffff"
     bordercolor="#666666"
     borderopacity="1"
     objecttolerance="10"
     gridtolerance="10"
     guidetolerance="10"
     inkscape:pageopacity="0"
     inkscape:pageshadow="2"
     inkscape:window-width="1366"
     inkscape:window-height="699"
     id="namedview6699"
     showgrid="false"
     inkscape:zoom="0.92373732"
     inkscape:cx="183.88039"
     inkscape:cy="-50.077446"
     inkscape:window-x="0"
     inkscape:window-y="0"
     inkscape:window-maximized="1"
     inkscape:current-layer="svg6697" />
  <linearGradient
     id="a"
     gradientUnits="userSpaceOnUse"
     x1="120"
     x2="120"
     y1="-28.584044"
     y2="107.800615">
    <stop
       offset="0"
       stop-color="#fff"
       id="stop6666" />
    <stop
       offset="1"
       stop-color="#555"
       id="stop6668" />
  </linearGradient>
  <linearGradient
     id="b"
     gradientTransform="matrix(1.0384874 0 0 .91306627 2.461539 14.695545)"
     gradientUnits="userSpaceOnUse"
     x1="46.048"
     x2="46.048"
     y1="128.01709"
     y2="16.6203">
    <stop
       offset="0"
       stop-color="#c7cdd7"
       id="stop6671" />
    <stop
       offset="1"
       stop-color="#fff"
       id="stop6673" />
  </linearGradient>
  <linearGradient
     id="c"
     gradientTransform="matrix(.49999994 -.00024526 .00024526 .49999994 55.98066 -.260481)"
     gradientUnits="userSpaceOnUse"
     x1="37.595825"
     x2="-95.973099"
     xlink:href="#d"
     y1="37.626347"
     y2="23.957754" />
  <linearGradient
     id="d">
    <stop
       offset="0"
       stop-color="#0968ef"
       id="stop6677" />
    <stop
       offset="1"
       stop-color="#aecffc"
       id="stop6679" />
  </linearGradient>
  <linearGradient
     id="e"
     gradientUnits="userSpaceOnUse"
     x1="116"
     x2="132"
     xlink:href="#d"
     y1="13.741947"
     y2="-8.258053" />
  <linearGradient
     id="f"
     gradientTransform="matrix(-.49999994 -.00024526 -.00024526 .49999994 68.00685 -.260481)"
     gradientUnits="userSpaceOnUse"
     x1="37.595825"
     x2="-95.973099"
     xlink:href="#d"
     y1="37.626347"
     y2="23.957754" />
  <linearGradient
     id="g"
     gradientUnits="userSpaceOnUse"
     x1="4"
     x2="20"
     xlink:href="#d"
     y1="13.741947"
     y2="-8.258053" />
  <g
     id="g7266">
    <g
       id="g7250">
      <path
         d="m8 31.741943h108v76h-108z"
         fill="url(#b)"
         id="path6685" />
      <path
         d="m3.9999998 27.741946v4 16 4 16 4 16 4 15.999994 4h4 20.0000002 4 28 4 28 4 20 4v-4-15.999994-4-16-4-16-4-16-4h-4-20-4-28-4-28-4-20.0000002zm4 4h20.0000002v16h-20.0000002zm24.0000002 0h28v16h-28zm32 0h28v16h-28zm32 0h20v16h-20zm-88.0000002 20h20.0000002v16h-20.0000002zm24.0000002 0h28v16h-28zm32 0h28v16h-28zm32 0h20v16h-20zm-88.0000002 20h20.0000002v16h-20.0000002zm24.0000002 0h28v16h-28zm32 0h28v16h-28zm32 0h20v16h-20zm-88.0000002 20h20.0000002v15.999994h-20.0000002zm24.0000002 0h28v15.999994h-28zm32 0h28v15.999994h-28zm32 0h20v15.999994h-20z"
         fill="url(#a)"
         id="path6687" />
    </g>
    <g
       id="g7256">
      <path
         d="m115.98751 13.710083-12.0049-9.9941139-1.98643 1.9884097 3.90232 6.0106662-53.898501.0269.002 3.999997 53.898502-.0269-3.89651 5.913863 1.98845 2.087076z"
         fill="url(#c)"
         fill-rule="evenodd"
         id="path6689" />
      <rect
         fill="url(#e)"
         height="28"
         rx=".137769"
         ry=".535839"
         width="4"
         x="116"
         y="-.258053"
         id="rect6691" />
      <path
         d="m7.999999 13.710083 12.0049-9.9941139 1.98643 1.9884097-3.90232 6.0106662 53.898501.0269-.002 3.999997-53.898502-.0269 3.89651 5.913863-1.98845 2.087076z"
         fill="url(#f)"
         fill-rule="evenodd"
         id="path6693" />
      <rect
         fill="url(#g)"
         height="28"
         rx=".137769"
         ry=".535839"
         width="4"
         x="4"
         y="-.258053"
         id="rect6695" />
    </g>
  </g>
</svg>

<?xml version="1.0" encoding="UTF-8" standalone="no"?>
<!-- Created with Inkscape (http://www.inkscape.org/) -->

<svg
   xmlns:dc="http://purl.org/dc/elements/1.1/"
   xmlns:cc="http://creativecommons.org/ns#"
   xmlns:rdf="http://www.w3.org/1999/02/22-rdf-syntax-ns#"
   xmlns:svg="http://www.w3.org/2000/svg"
   xmlns="http://www.w3.org/2000/svg"
   xmlns:xlink="http://www.w3.org/1999/xlink"
   xmlns:sodipodi="http://sodipodi.sourceforge.net/DTD/sodipodi-0.dtd"
   xmlns:inkscape="http://www.inkscape.org/namespaces/inkscape"
   id="svg2"
   version="1.1"
   inkscape:version="0.92.3 (unknown)"
   width="127.74194"
   height="127.74194"
   viewBox="0 0 127.74194 127.74194"
   sodipodi:docname="tablemodevariable.svg"
   inkscape:export-filename="/home/rizmut/Dokumen/Rizmut/Github/libreoffice-style-karasa-jaga/build/images_karasa_Jaga/cmd/32/tablemodevariable.png"
   inkscape:export-xdpi="24.048483"
   inkscape:export-ydpi="24.048483">
  <metadata
     id="metadata8">
    <rdf:RDF>
      <cc:Work
         rdf:about="">
        <dc:format>image/svg+xml</dc:format>
        <dc:type
           rdf:resource="http://purl.org/dc/dcmitype/StillImage" />
        <dc:title></dc:title>
      </cc:Work>
    </rdf:RDF>
  </metadata>
  <defs
     id="defs6">
    <linearGradient
       id="linearGradient3895">
      <stop
         style="stop-color:#382a23;stop-opacity:1;"
         offset="0"
         id="stop3897" />
      <stop
         style="stop-color:#753919;stop-opacity:0;"
         offset="1"
         id="stop3899" />
    </linearGradient>
    <radialGradient
       id="XMLID_4_"
       cx="48"
       cy="-0.2148"
       r="55.147999"
       gradientTransform="matrix(0.9792,0,0,0.9725,133.0002,20.8762)"
       gradientUnits="userSpaceOnUse">
      <stop
         offset="0"
         style="stop-color:#fff718;stop-opacity:1;"
         id="stop3082" />
      <stop
         offset="1"
         style="stop-color:#e77100;stop-opacity:1;"
         id="stop3090" />
    </radialGradient>
    <linearGradient
       id="linearGradient3344">
      <stop
         id="stop3346"
         offset="0"
         style="stop-color:#fdff63;stop-opacity:1;" />
      <stop
         id="stop3348"
         offset="1"
         style="stop-color:#ffffff;stop-opacity:0;" />
    </linearGradient>
    <linearGradient
       y2="0"
       x2="28"
       y1="57.5"
       x1="28"
       gradientUnits="userSpaceOnUse"
       id="XMLID_2_">
      <stop
         id="stop12"
         style="stop-color:#FFEA00"
         offset="0" />
      <stop
         id="stop14"
         style="stop-color:#FFCC00"
         offset="1" />
    </linearGradient>
    <linearGradient
       id="linearGradient3919"
       gradientUnits="userSpaceOnUse"
       x1="28"
       y1="57.5"
       x2="28"
       y2="0">
      <stop
         offset="0"
         style="stop-color:#FFEA00"
         id="stop3921" />
      <stop
         offset="1"
         style="stop-color:#dea200;stop-opacity:1"
         id="stop3923" />
    </linearGradient>
    <radialGradient
       id="radialGradient15384"
       cx="48"
       cy="-0.2148"
       r="55.147999"
       gradientTransform="matrix(0.9792,0,0,0.9725,133.0002,20.8762)"
       gradientUnits="userSpaceOnUse">
      <stop
         offset="0"
         style="stop-color:#fff718;stop-opacity:1;"
         id="stop15386" />
      <stop
         offset="1"
         style="stop-color:#e77100;stop-opacity:1;"
         id="stop15388" />
    </radialGradient>
    <linearGradient
       id="linearGradient18668"
       gradientUnits="userSpaceOnUse"
       x1="28"
       y1="57.5"
       x2="28"
       y2="0">
      <stop
         offset="0"
         style="stop-color:#fffccf;stop-opacity:1;"
         id="stop18670" />
      <stop
         offset="1"
         style="stop-color:white;stop-opacity:0;"
         id="stop18672" />
    </linearGradient>
    <linearGradient
       id="linearGradient3825">
      <stop
         style="stop-color:#ffffff;stop-opacity:0;"
         offset="0"
         id="stop3827" />
      <stop
         id="stop3833"
         offset="0.5"
         style="stop-color:#ffffff;stop-opacity:0.18705036;" />
      <stop
         style="stop-color:#ffffff;stop-opacity:1;"
         offset="1"
         id="stop3829" />
    </linearGradient>
    <linearGradient
       id="linearGradient3711"
       gradientUnits="userSpaceOnUse"
       x1="-84.002403"
       y1="-383.9971"
       x2="-23.516129"
       y2="-383.9975"
       gradientTransform="matrix(0,1,-1,0,-39.9985,140.0029)">
      <stop
         offset="0"
         style="stop-color:white;stop-opacity:1;"
         id="stop3713" />
      <stop
         offset="1"
         style="stop-color:white;stop-opacity:0"
         id="stop3715" />
    </linearGradient>
    <linearGradient
       id="XMLID_9_"
       gradientUnits="userSpaceOnUse"
       x1="94.343803"
       y1="102.3447"
       x2="86.535599"
       y2="94.536598">
      <stop
         offset="0"
         style="stop-color:#FFFFFF"
         id="stop62" />
      <stop
         offset="1"
         style="stop-color:#555753"
         id="stop64" />
    </linearGradient>
    <linearGradient
       y2="95.292999"
       x2="87.292999"
       y1="103"
       x1="95"
       gradientUnits="userSpaceOnUse"
       id="linearGradient4175">
      <stop
         id="stop4177"
         style="stop-color:#000000;stop-opacity:1"
         offset="0" />
      <stop
         id="stop4179"
         style="stop-color:#393B38"
         offset="1" />
    </linearGradient>
    <linearGradient
       id="XMLID_12_"
       gradientUnits="userSpaceOnUse"
       x1="96"
       y1="104"
       x2="88.000198"
       y2="96.000198">
      <stop
         offset="0"
         style="stop-color:#888A85"
         id="stop83" />
      <stop
         offset="0.0072"
         style="stop-color:#8C8E89"
         id="stop85" />
      <stop
         offset="0.0673"
         style="stop-color:#ABACA9"
         id="stop87" />
      <stop
         offset="0.1347"
         style="stop-color:#C5C6C4"
         id="stop89" />
      <stop
         offset="0.2115"
         style="stop-color:#DBDBDA"
         id="stop91" />
      <stop
         offset="0.3012"
         style="stop-color:#EBEBEB"
         id="stop93" />
      <stop
         offset="0.4122"
         style="stop-color:#F7F7F6"
         id="stop95" />
      <stop
         offset="0.5679"
         style="stop-color:#FDFDFD"
         id="stop97" />
      <stop
         offset="1"
         style="stop-color:#FFFFFF"
         id="stop99" />
    </linearGradient>
    <radialGradient
       id="XMLID_8_"
       cx="102"
       cy="112.3047"
       r="139.55859"
       gradientUnits="userSpaceOnUse">
      <stop
         offset="0"
         style="stop-color:#535557"
         id="stop37" />
      <stop
         offset="0.11366145"
         style="stop-color:#898A8C"
         id="stop41" />
      <stop
         offset="0.20296688"
         style="stop-color:#ECECEC"
         id="stop47" />
      <stop
         offset="0.2363"
         style="stop-color:#FAFAFA"
         id="stop49" />
      <stop
         offset="0.2722"
         style="stop-color:#FFFFFF"
         id="stop51" />
      <stop
         offset="0.5313"
         style="stop-color:#FAFAFA"
         id="stop53" />
      <stop
         offset="0.8449"
         style="stop-color:#EBECEC"
         id="stop55" />
      <stop
         offset="1"
         style="stop-color:#E1E2E3"
         id="stop57" />
    </radialGradient>
    <radialGradient
       id="XMLID_7_"
       cx="102"
       cy="112.3047"
       r="139.5585"
       gradientUnits="userSpaceOnUse">
      <stop
         offset="0"
         style="stop-color:#00537D"
         id="stop16" />
      <stop
         offset="0.0151"
         style="stop-color:#186389"
         id="stop18" />
      <stop
         offset="0.0558"
         style="stop-color:#558CA8"
         id="stop20" />
      <stop
         offset="0.0964"
         style="stop-color:#89AFC3"
         id="stop22" />
      <stop
         offset="0.1357"
         style="stop-color:#B3CCD8"
         id="stop24" />
      <stop
         offset="0.1737"
         style="stop-color:#D4E2E9"
         id="stop26" />
      <stop
         offset="0.2099"
         style="stop-color:#ECF2F5"
         id="stop28" />
      <stop
         offset="0.2435"
         style="stop-color:#FAFCFD"
         id="stop30" />
      <stop
         offset="0.2722"
         style="stop-color:#FFFFFF"
         id="stop32" />
    </radialGradient>
    <linearGradient
       gradientTransform="translate(-2.0000001e-7,3.7419452)"
       inkscape:collect="always"
       xlink:href="#linearGradient10867"
       id="linearGradient4657"
       gradientUnits="userSpaceOnUse"
       x1="120"
       y1="-32.325989"
       x2="120"
       y2="104.05867" />
    <linearGradient
       id="linearGradient10867"
       inkscape:collect="always">
      <stop
         id="stop10869"
         offset="0"
         style="stop-color:#ffffff;stop-opacity:1" />
      <stop
         id="stop10871"
         offset="1"
         style="stop-color:#555555;stop-opacity:1" />
    </linearGradient>
    <linearGradient
       inkscape:collect="always"
       xlink:href="#linearGradient3323"
       id="linearGradient3733"
       x1="46.048"
       y1="128.01709"
       x2="46.048"
       y2="16.6203"
       gradientUnits="userSpaceOnUse"
       gradientTransform="matrix(1.0384874,0,0,0.91306627,2.4615389,14.695545)" />
    <linearGradient
       id="linearGradient3323">
      <stop
         style="stop-color:#c7cdd7;stop-opacity:1;"
         offset="0"
         id="stop3325" />
      <stop
         style="stop-color:#ffffff;stop-opacity:1;"
         offset="1"
         id="stop3327" />
    </linearGradient>
    <linearGradient
       inkscape:collect="always"
       xlink:href="#linearGradient2399-7"
       id="linearGradient3358"
       gradientUnits="userSpaceOnUse"
       gradientTransform="matrix(0.49999994,-2.4525999e-4,2.4525999e-4,0.49999994,55.98066,-0.26048122)"
       x1="37.595825"
       y1="37.626347"
       x2="-95.973099"
       y2="23.957754" />
    <linearGradient
       id="linearGradient2399-7">
      <stop
         style="stop-color:#0968ef;stop-opacity:1;"
         offset="0"
         id="stop2401-6" />
      <stop
         style="stop-color:#aecffc;stop-opacity:1;"
         offset="1"
         id="stop2403-5" />
    </linearGradient>
    <linearGradient
       inkscape:collect="always"
       xlink:href="#linearGradient2399-7"
       id="linearGradient983"
       x1="116"
       y1="13.741947"
       x2="132"
       y2="-8.2580528"
       gradientUnits="userSpaceOnUse" />
    <linearGradient
       inkscape:collect="always"
       xlink:href="#linearGradient2399-7"
       id="linearGradient989"
       gradientUnits="userSpaceOnUse"
       gradientTransform="matrix(-0.49999994,-2.4525999e-4,-2.4525999e-4,0.49999994,68.00685,-0.26048122)"
       x1="37.595825"
       y1="37.626347"
       x2="-95.973099"
       y2="23.957754" />
    <linearGradient
       inkscape:collect="always"
       xlink:href="#linearGradient2399-7"
       id="linearGradient993"
       gradientUnits="userSpaceOnUse"
       x1="116"
       y1="13.741947"
       x2="132"
       y2="-8.2580528"
       gradientTransform="translate(-112)" />
  </defs>
  <sodipodi:namedview
     pagecolor="#ffffff"
     bordercolor="#666666"
     borderopacity="1"
     objecttolerance="10"
     gridtolerance="10"
     guidetolerance="10"
     inkscape:pageopacity="0"
     inkscape:pageshadow="2"
     inkscape:window-width="1366"
     inkscape:window-height="699"
     id="namedview4"
     showgrid="true"
     inkscape:snap-page="false"
     inkscape:zoom="1.4142136"
     inkscape:cx="0.3676029"
     inkscape:cy="82.163313"
     inkscape:window-x="0"
     inkscape:window-y="0"
     inkscape:window-maximized="1"
     inkscape:current-layer="svg2">
    <inkscape:grid
       type="xygrid"
       id="grid7561"
       spacingx="3.9999999"
       spacingy="3.9999999"
       empspacing="2" />
  </sodipodi:namedview>
  <rect
     y="31.741943"
     x="8"
     height="76"
     width="108"
     id="rect3723"
     style="fill:url(#linearGradient3733);fill-opacity:1;stroke:none" />
  <path
     inkscape:connector-curvature="0"
     style="fill:url(#linearGradient4657);fill-opacity:1;stroke:none"
     d="m 3.9999998,27.741946 v 4 16 4 16 4 16 4 15.999994 4 h 4 H 28 h 4 28 4 28 4 20 4 v -4 -15.999994 -4 -16 -4 -16 -4 -16 -4 H 116 96 92 64 60 32 28 7.9999998 Z m 4,4 H 28 v 16 H 7.9999998 Z m 24.0000002,0 h 28 v 16 H 32 Z m 32,0 h 28 v 16 H 64 Z m 32,0 h 20 v 16 H 96 Z m -88.0000002,20 H 28 v 16 H 7.9999998 Z m 24.0000002,0 h 28 v 16 H 32 Z m 32,0 h 28 v 16 H 64 Z m 32,0 h 20 v 16 H 96 Z m -88.0000002,20 H 28 v 16 H 7.9999998 Z m 24.0000002,0 h 28 v 16 H 32 Z m 32,0 h 28 v 16 H 64 Z m 32,0 h 20 v 16 H 96 Z m -88.0000002,20 H 28 V 107.74194 H 7.9999998 Z M 32,91.741946 H 60 V 107.74194 H 32 Z m 32,0 H 92 V 107.74194 H 64 Z m 32,0 h 20 V 107.74194 H 96 Z"
     id="rect3956" />
  <path
     inkscape:connector-curvature="0"
     style="fill:url(#linearGradient3358);fill-opacity:1;fill-rule:evenodd;stroke:none"
     d="m 115.98751,13.710083 -12.0049,-9.9941139 -1.98643,1.9884097 3.90232,6.0106662 -53.898501,0.0269 0.002,3.999997 53.898502,-0.0269 -3.89651,5.913863 1.98845,2.087076 z"
     id="path3356"
     sodipodi:nodetypes="cccccccccc" />
  <rect
     style="opacity:1;fill:url(#linearGradient983);fill-opacity:1;stroke:none;stroke-width:1.88976383;stroke-linecap:square;stroke-linejoin:round;stroke-miterlimit:4;stroke-dasharray:none;stroke-dashoffset:0;stroke-opacity:1"
     id="rect975"
     width="4"
     height="28"
     x="116"
     y="-0.25805345"
     rx="0.137769"
     ry="0.53583902" />
  <path
     sodipodi:nodetypes="cccccccccc"
     id="path987"
     d="m 7.999999,13.710083 12.0049,-9.9941139 1.98643,1.9884097 -3.90232,6.0106662 53.898501,0.0269 -0.002,3.999997 -53.898502,-0.0269 3.89651,5.913863 -1.98845,2.087076 z"
     style="fill:url(#linearGradient989);fill-opacity:1;fill-rule:evenodd;stroke:none"
     inkscape:connector-curvature="0" />
  <rect
     ry="0.53583902"
     rx="0.137769"
     y="-0.25805345"
     x="3.9999998"
     height="28"
     width="4"
     id="rect991"
     style="opacity:1;fill:url(#linearGradient993);fill-opacity:1;stroke:none;stroke-width:1.88976383;stroke-linecap:square;stroke-linejoin:round;stroke-miterlimit:4;stroke-dasharray:none;stroke-dashoffset:0;stroke-opacity:1" />
</svg>
